svg/l/KE.svg

<svg width="32" height="24" viewBox="0 0 32 24" fill="none" xmlns="http://www.w3.org/2000/svg">
<g clip-path="url(#clip0_270_67524)">
<rect width="32" height="24" fill="white"/>
<path fill-rule="evenodd" clip-rule="evenodd" d="M0 0V8H32V0H0Z" fill="#272727"/>
<path fill-rule="evenodd" clip-rule="evenodd" d="M0 16V24H32V16H0Z" fill="#4E8B1D"/>
<path d="M0 7H-1V8V16V17H0H32H33V16V8V7H32H0Z" fill="#E31D1C" stroke="#F7FCFF" stroke-width="2"/>
<path d="M19.0195 3.92897C19.2098 3.53878 19.7215 3.11269 20.5545 2.6507C20.5831 2.63482 20.6177 2.63391 20.6471 2.64826C20.6969 2.67254 20.7175 2.73259 20.693 2.78225L12.0617 20.479L11.6123 20.2598L19.2207 4.66026C18.8762 4.60414 18.8091 4.36038 19.0195 3.92897Z" fill="white"/>
<path d="M12.9713 3.92897C13.1817 4.36038 13.1146 4.60414 12.7701 4.66026L20.3785 20.2598L19.9291 20.479L11.2978 2.78225C11.2733 2.73259 11.2939 2.67254 11.3437 2.64826C11.3731 2.63391 11.4077 2.63482 11.4363 2.6507C12.2693 3.11269 12.781 3.53878 12.9713 3.92897Z" fill="white"/>
<path d="M6.5 19C10.366 19 13.5 15.866 13.5 12C13.5 8.13401 10.366 5 6.5 5C2.63401 5 -0.5 8.13401 -0.5 12C-0.5 15.866 2.63401 19 6.5 19Z" fill="#272727"/>
<path d="M25.5 19C29.366 19 32.5 15.866 32.5 12C32.5 8.13401 29.366 5 25.5 5C21.634 5 18.5 8.13401 18.5 12C18.5 15.866 21.634 19 25.5 19Z" fill="#272727"/>
<path fill-rule="evenodd" clip-rule="evenodd" d="M16.2 10.93C16.6564 10.6057 17 9.19327 17 7.5C17 5.80673 16.6564 4.3943 16.2 4.07001V10.93ZM15.7 10.8398C15.2943 10.3938 15 9.06717 15 7.5C15 5.93282 15.2943 4.60622 15.7 4.16023V10.8398ZM15.7 13.1602V19.8398C15.2943 19.3938 15 18.0672 15 16.5C15 14.9328 15.2943 13.6062 15.7 13.1602ZM16.2 19.93V13.07C16.6564 13.3943 17 14.8067 17 16.5C17 18.1933 16.6564 19.6057 16.2 19.93Z" fill="#F7FCFF"/>
<path d="M16 11C16.5523 11 17 11.4477 17 12C17 12.5523 16.5523 13 16 13C15.4477 13 15 12.5523 15 12C15 11.4477 15.4477 11 16 11Z" fill="#F7FCFF"/>
</g>
<defs>
<clipPath id="clip0_270_67524">
<rect width="32" height="24" fill="white"/>
</clipPath>
</defs>
</svg>

<svg width="32" height="24" fill="none" xmlns="http://www.w3.org/2000/svg">
  <mask id="a" maskUnits="userSpaceOnUse" x="0" y="0" width="32" height="24">
    <path fill="#fff" d="M0 0h32v24H0z"/>
  </mask>
  <g mask="url(#a)">
    <path fill-rule="evenodd" clip-rule="evenodd" d="M0 0v8h32V0H0z" fill="#272727"/>
    <path fill-rule="evenodd" clip-rule="evenodd" d="M0 16v8h32v-8H0z" fill="#4E8B1D"/>
    <path d="M0 7h-1v10h34V7H0z" fill="#E31D1C" stroke="#F7FCFF" stroke-width="2"/>
  </g>
  <path d="M19.02 3.929c.19-.39.701-.816 1.535-1.278a.1.1 0 01.138.131L12.062 20.48l-.45-.22 7.609-15.6c-.345-.056-.412-.3-.201-.731z" fill="#fff"/>
  <path d="M12.971 3.929c.21.431.144.675-.2.731l7.607 15.6-.449.219-8.631-17.697a.1.1 0 01.138-.131c.833.462 1.345.888 1.535 1.278z" fill="#fff"/>
  <path fill-rule="evenodd" clip-rule="evenodd" d="M16 20c.997 0 5-3.582 5-8s-4.003-8-5-8c-.997 0-5 3.582-5 8s4.003 8 5 8z" fill="#E31D1C"/>
  <mask id="b" maskUnits="userSpaceOnUse" x="11" y="4" width="10" height="16">
    <path fill-rule="evenodd" clip-rule="evenodd" d="M16 20c.997 0 5-3.582 5-8s-4.003-8-5-8c-.997 0-5 3.582-5 8s4.003 8 5 8z" fill="#fff"/>
  </mask>
  <g mask="url(#b)">
    <path d="M6.5 19a7 7 0 100-14 7 7 0 000 14zm19 0a7 7 0 100-14 7 7 0 000 14z" fill="#272727"/>
    <path fill-rule="evenodd" clip-rule="evenodd" d="M16.2 10.93c.456-.324.8-1.737.8-3.43s-.344-3.106-.8-3.43v6.86zm-.5-.09c-.406-.446-.7-1.773-.7-3.34s.294-2.894.7-3.34v6.68zm0 2.32v6.68c-.406-.446-.7-1.773-.7-3.34s.294-2.894.7-3.34zm.5 6.77v-6.86c.456.324.8 1.737.8 3.43s-.344 3.106-.8 3.43z" fill="#F7FCFF"/>
    <path d="M16 11a1 1 0 110 2 1 1 0 010-2z" fill="#F7FCFF"/>
  </g>
</svg>
